X: 8
T: Batchelder's
M: C|
R: reel
K: F
c2| "F"f2af "C"efge| "F"f2c2 c2=Bc| "Bb"dcBA "(Gm)" BAGF| "C"EFGA Bcde|
"F"f2af "C"efge| "F"f2c2 c2=Bc| "Bb"dcBA "(Gm)"BAGF|"C"EFGE "F"F2 :|
|:"F"A2cA cAcA| "Bb"B2dB dBdB| "F"A2cA cAcA| "C(Gm)"BAGF"C" EFGB|
"F"A2cA cAcA| "Bb"B2dB dBdB| "C"Acfa bgeg| "F"f2a2 f2 :|
